X:1
T:Title
%%score { ( 1 4 ) | ( 2 3 ) }
L:1/8
Q:1/4=94
M:4/4
K:Ab
V:1 treble nm="Grand Piano"
V:4 treble 
V:2 bass 
V:3 bass 
V:1
 [Ec]2 [CE]2 [CA]2 [Ec]2 | c2 B=A B4 | B2 E2 G2 B2 | [CA]2 [EG][DF] [CE]4 | %4
w: J.~S.~Fearis * * *||||
 [Ec]2 [CE]2 [CA]2 [Ec]2 | [_Ge]2 dc [FB]2 [Fd][Fd] | c2 A2 B2 G2 | [CEA]6 z2 | %8
w: ||||
 [A,DF][A,DF][A,DF][A,DF] [A,FA]2 [A,EG][A,DF] | [A,CE]2 [CEA]2 c3 c | B2 c2 d3 B | c2 d2 e4 | %12
w: ||||
 FFFF [FA]2 [EG][DF] | [CE]2 [CA]2 c3 c | [_Ge][Ge][Fd][DFB] [CEA]2 [B,E=G]2 | [A,CEA]6 z2 |] %16
w: ||||
V:2
 [A,,A,]2 [A,,A,]2 [A,,A,]2 [A,,A,]2 | [E,A,E]2 [G,D][_G,C] [E,=G,D]4 | %2
 [E,G,D]2 [E,G,D]2 [E,B,D]2 [E,G,D]2 | [A,,A,]2 [A,,A,]2 [A,,A,]4 | %4
 [A,,A,]2 [A,,A,]2 [A,,A,]2 [A,,A,]2 | [C,A,]2 [C,A,]2 [D,A,]2 [D,A,][D,A,] | %6
 [E,A,E]2 [E,CE]2 [E,DE]2 [E,B,E]2 | A,,6 z2 | D,D,D,D, D,2 D,D, | %9
 A,,2 A,,2[K:treble] [A,EA]3 [A,E] | [E,G,E]2 [E,A,E]2 [E,B,E]3 [E,G,E] | [A,E]2 [A,B,E]2 [A,CE]4 | %12
 [D,A,D][D,A,D][D,A,D][D,A,D] [D,A,]2 [D,A,][D,A,] | [A,,A,]2 [A,,A,]2 [A,E]3 [A,E] | %14
 [C,A,][C,A,][D,A,]D, E,2 E,2 | A,,6 z2 |] %16
V:3
 x8 | z2 E,2 z4 | x8 | x8 | x8 | x8 | x8 | x8 | x8 | x4[K:treble] x4 | x8 | x8 | x8 | x8 | x8 | %15
 x8 |] %16
V:4
 x8 | x8 | x8 | x8 | x8 | z2 _G2 z4 | x8 | x8 | x8 | x8 | x8 | x8 | x8 | x8 | x8 | x8 |] %16

